!!!!SEGMENT: pl-cz--ii-87--001-010_zientarski-romuald-teodor--msza-swieta-agnus-dei.krn
!!!cenid: 18xx:1171
!!!COM: Zientarski, Romuald Teodor
!!!COM-rismID: pe30001080
!!!CDT: ~1830-1874
!!!CNT: Polish
!!!OPR: Msza Święta
!!!OTL: Agnus Dei
!!!OMV: 010
!!!PDT: 1888
!!!AGN: Sacred; Mass
!!!SMS-siglum: PL-CZ
!!!SMS-shelfmark: II-87
!!!SMS-shelfwork: 001-010 M
!!!SMS-variant:
!!!SMS-altvar:
!!!NIFC-rismSourceID: 300033223
!!!NIFC-rismChildID: 300033224
!!!NIFC-islandoraID: pl-cz:33881
!!!URL-pdf-islandora: https://repozytorium.nifc.pl/islandora/object/pl-cz%3A33881/datastream/PDF/view
!!!URL-scan:
!!!ONB-nifc: UWAGA: części Mszy: Kyrie, Gloria, Graduale, Credo, Et incarnatus, Et resurrexit, Offertorium, Sanctus, Benedictus, Agnus Dei, Benedictio
!!!AIN: 1 organ
!!!key: C
**kern	**kern	**text	**text	**dynam
*part1	*part1	*part1	*part1	*part1
*staff2	*staff1	*staff1	*staff1	*
*I"[Organo]	*	*	*	*
*Iorgan	*	*	*	*
*ICklav	*	*	*	*
*clefF4	*clefG2	*	*	*
*k[]	*k[]	*	*	*
*C:	*C:	*	*	*
*M3/4	*M3/4	*	*	*
=1	=1	=1	=1	=1
4c\	4cc\	Niech	Wy	.
4e\	4ee\	się	któ-	.
4A\	4a/	na	-rzy	.
=2	=2	=2	=2	=2
(>2c\	(>2cc^\	ser-	czy-	.
4D#X\)	4d#X/)	-cu	-sci	.
=3	=3	=3	=3	=3
*^	*^	*	*	*
(<2E/	2E\	4e/	2e\	nie	je-	.
.	.	8ryy	.	.	.	.
.	.	8cc/	.	.	.	.
4EE/)	4ryy	8b/L	4ryy	.	.	.
.	.	8g#X/J	.	.	.	.
=4	=4	=4	=4	=4	=4	=4
!	!	!	!LO:SIC:v:l:s=trwo-	!	!	!
2E/	2AA\	2a/	4a/	twor-	-ste-	.
.	.	.	4a/	.	.	.
4r	4ryy	(>8cc\L	4ryy	-ży	-cie	.
.	.	8b\J)	.	.	.	.
*v	*v	*	*	*	*	*
*	*v	*v	*	*	*
=5	=5	=5	=5	=5
2F\	(<4a 4f/	ko-	ko-	.
.	4cc 4a/	-go	-go	.
8F\L	4a 4f/)	su-	żal	.
8A\J	.	.	.	.
=6	=6	=6	=6	=6
2c\	2g 2e/	-mie-	o-	.
8C\	4cc 4g 4c/	-nie	-mył	.
8E\	.	.	.	.
=7	=7	=7	=7	=7
*^	*	*	*	*
!	!LO:S:s=1:note:problem=note-level slur	!	!	!	!
!	!LO:N:vis=2	!	!	!	!
2.B/	(>2.G\	(>4.dd 4.f\	przy-	i	.
.	.	8b 8e/	.	.	.
.	.	8ccL 8e\	.	.	.
.	.	8ddJ 8f\)	.	.	.
=8	=8	=8	=8	=8	=8
4A/)	2C\	(>4dd#X^> (<4f#X/	-gnia-	skru-	.
(>(<4G/	.	4ee) 4g/)	-ta	-cha	.
4G#X/)	4BB\)	4r	.	.	.
*v	*v	*	*	*	*
!!LO:LB:g=original
=9	=9	=9	=9	=9
*	*^	*	*	*
4A 4AA\	8ee/	4ee 4cc\	Gdyż	Do	.
.	8r	.	.	.	.
(>4.G#X (<4.GG#X/	(>4.ff 4.b^\	2ryy	o-	sto-	.
8A) 8AA\)	8ee 8cc\)	.	-to	-łu	.
=10	=10	=10	=10	=10	=10
*^	*	*	*	*	*
(<4c/	(<2.F\	8dd/L	2a\	Ba-	Bo-	.
.	.	8cc/J	.	.	.	.
4d/	.	4b/	.	-ra-	-że-	.
4d#X/	.	4a/	4ryy	-nek	-go	.
=11	=11	=11	=11	=11	=11	=11
!	!	!	!	!	!	!LO:HP:a
2.e/)	2.E\)	(>2.cc/	(<2.a\	Bo-	spiesz-	<[
*v	*v	*	*	*	*	*
=12	=12	=12	=12	=12	=12
!LO:SIC:v:n=1:s=4e	!	!	!	!	!LO:HP:a
4c 4E\	4b) 4g#X/)	2ryy	-ży	-cie	>
4r	4r	.	.	.	.
4r	8b/	4b 4g#/	któ-	Bo	]
.	8b/	.	-ry	.	.
=13	=13	=13	=13	=13	=13
*^	*	*	*	*	*
2.B/	2D\	(>2ff/	(<2g#X\	gła-	da-	.
.	4BB\	4dd/))	4ryy	-dzi	-na	.
=14	=14	=14	=14	=14	=14	=14
2c/	(>4C\	(<4ee/	(<2a\	grze-	u-	.
.	4E\)	4cc/)	.	.	-czta	.
4ryy	4C\	4a/	4e\)	-chy	dla	.
*v	*v	*	*	*	*	*
=15	=15	=15	=15	=15	=15
*	*	*^	*	*	*
(<2E/	(>2b/	(<2e\	2.g#X\	sw-	du-	.
4EE/)	4ee/)	4d\)	.	-ia-	.	.
*	*v	*v	*v	*	*	*
=16	=16	=16	=16	=16
4AA/	4a 4e 4c/	-ta.	-cha.	.
4r	4r	.	.	.
4r	4r	.	.	.
==	==	==	==	==
*-	*-	*-	*-	*-
!!!system-decoration: (s1,s2)
!!!RDF**kern: > = above
!!!RDF**kern: < = below
!!!ENC: Andrzej Borzym
!!!END: 2020-11-07
!!!ENC: Andrzej Kubiczek
!!!END: 2021-11-14
!!!YEC: Copyright 2022 Narodowy Instytut Fryderyka Chopina (https://polishscores.org)
!!!YEM: License CC-BY-4.0 (https://creativecommons.org/licenses/by/4.0)
